assets/zeplin.svg

<svg width="56" height="44" viewBox="0 0 56 44" fill="none" xmlns="http://www.w3.org/2000/svg">
<path fill-rule="evenodd" clip-rule="evenodd" d="M8.63147 30.3366L5.70191 31.3886L5.54462 39.9551L15.6858 36.3136C12.2075 35.1652 9.6674 33.1445 8.63147 30.3366Z" fill="#FDBD39"/>
<path fill-rule="evenodd" clip-rule="evenodd" d="M10.1646 21.2759L0 24.9259L5.70191 31.3886L8.63147 30.3366C7.59856 27.5369 8.23556 24.372 10.1646 21.2759Z" fill="#F69833"/>
<path fill-rule="evenodd" clip-rule="evenodd" d="M27.2698 8.91486C14.3262 13.5627 5.98145 23.1535 8.63147 30.3366L55.5046 13.5053C52.8546 6.32216 40.2135 4.26699 27.2698 8.91486Z" fill="#FECF33"/>
<path fill-rule="evenodd" clip-rule="evenodd" d="M36.8663 34.927C49.81 30.2791 58.1703 20.7309 55.5046 13.5053L8.63147 30.3366C11.2971 37.5622 23.9226 39.5748 36.8663 34.927Z" fill="#EE6723"/>
<path fill-rule="evenodd" clip-rule="evenodd" d="M55.5046 13.5053L8.63147 30.3366C9.54931 32.8245 13.0494 34.0501 17.9605 34.0501C22.7483 34.0501 28.8772 32.886 35.2669 30.5916C48.2106 25.9437 57.3173 18.4187 55.5046 13.5053Z" fill="#F69833"/>
<path fill-rule="evenodd" clip-rule="evenodd" d="M46.1756 9.79156C41.3877 9.79156 35.2589 10.9557 28.8692 13.2501C15.9255 17.898 6.81878 25.4232 8.63147 30.3366L55.5046 13.5053C54.5868 11.0173 51.0867 9.79156 46.1756 9.79156Z" fill="#FDBD39"/>
<path fill-rule="evenodd" clip-rule="evenodd" d="M43.587 40.4088C42.2079 40.4088 40.173 39.1843 37.5394 36.7694C34.4237 33.9124 30.8547 29.7278 27.4896 24.9866C24.1247 20.2455 21.3596 15.5055 19.7039 11.6397C17.9 7.427 17.6428 4.83674 18.9394 3.94085C19.2237 3.74462 19.5664 3.6452 19.958 3.6452C21.0127 3.6452 23.0679 4.41708 26.8682 8.09453L26.9513 8.1749L26.94 8.2892C26.914 8.55339 26.8901 8.81994 26.8688 9.08156L26.8264 9.60105L26.4536 9.23183C22.3589 5.17697 20.5564 4.73921 19.9714 4.73921C19.8046 4.73921 19.6718 4.77256 19.5765 4.83837C19.0141 5.22683 18.9779 7.12945 20.7268 11.2132C22.353 15.0101 25.0778 19.6784 28.3993 24.3581C31.7209 29.0382 35.2353 33.161 38.2954 35.9669C41.5951 38.9925 43.0821 39.3192 43.5682 39.3192C43.7361 39.3192 43.8725 39.2838 43.9737 39.2138C44.567 38.8041 44.5677 36.7659 42.6173 32.3704L42.5278 32.1686L42.7238 32.0631C42.9198 31.9576 43.1094 31.8537 43.2872 31.7544L43.522 31.6232L43.6302 31.867C45.0132 34.9816 46.3059 38.9401 44.6108 40.1114C44.325 40.3087 43.9806 40.4088 43.587 40.4088Z" fill="#EE6723"/>
<path fill-rule="evenodd" clip-rule="evenodd" d="M37.1805 34.7959L37.1608 35.0353C36.8336 39.0154 35.9719 43.8003 33.7254 43.994C33.6802 43.998 33.6333 44 33.5865 44C32.0603 44 30.6165 41.8507 29.2951 37.6117C28.0449 33.6013 27.0748 28.2167 26.5634 22.4499C26.052 16.6843 26.0596 11.2154 26.585 7.05071C27.1575 2.51246 28.2476 0.142443 29.8248 0.00640229C29.8714 0.00217743 29.9197 0 29.9674 0C31.0745 0 32.7431 1.23223 34.4512 6.97174L33.3359 7.18333C32.7656 5.26535 32.144 3.7054 31.527 2.63349C30.9562 1.64201 30.4013 1.09599 29.9643 1.09599C29.9499 1.09599 29.9354 1.09658 29.9212 1.09778C29.2376 1.1568 28.242 2.78672 27.687 7.18603C27.171 11.276 27.1648 16.663 27.6695 22.3546C28.1744 28.047 29.1287 33.3511 30.3565 37.2896C30.9064 39.0536 31.5095 40.5073 32.1007 41.4938C32.6458 42.4035 33.1734 42.9045 33.5861 42.9045C33.6003 42.9045 33.6145 42.9038 33.6286 42.9026C34.2827 42.8463 35.5153 41.1502 36.0341 35.1827L37.1805 34.7959Z" fill="#EE6723"/>
</svg>

<svg width="56" height="44" fill="none" xmlns="http://www.w3.org/2000/svg"><path fill-rule="evenodd" clip-rule="evenodd" d="m8.631 30.337-2.93 1.052-.156 8.566 10.14-3.641c-3.478-1.149-6.018-3.17-7.054-5.977Z" fill="#FDBD39"/><path fill-rule="evenodd" clip-rule="evenodd" d="M10.165 21.276 0 24.926l5.702 6.463 2.93-1.052c-1.033-2.8-.396-5.965 1.533-9.061Z" fill="#F69833"/><path fill-rule="evenodd" clip-rule="evenodd" d="M27.27 8.915C14.326 13.563 5.98 23.154 8.63 30.337l46.874-16.832c-2.65-7.183-15.291-9.238-28.235-4.59Z" fill="#FECF33"/><path fill-rule="evenodd" clip-rule="evenodd" d="M36.866 34.927C49.81 30.279 58.17 20.731 55.505 13.505L8.63 30.337c2.666 7.225 15.292 9.238 28.235 4.59Z" fill="#EE6723"/><path fill-rule="evenodd" clip-rule="evenodd" d="M55.505 13.505 8.63 30.337c.918 2.488 4.418 3.713 9.33 3.713 4.787 0 10.916-1.164 17.306-3.458 12.944-4.648 22.05-12.173 20.238-17.087Z" fill="#F69833"/><path fill-rule="evenodd" clip-rule="evenodd" d="M46.176 9.792c-4.788 0-10.917 1.164-17.307 3.458C15.925 17.898 6.82 25.423 8.631 30.337l46.874-16.832c-.918-2.488-4.418-3.713-9.33-3.713Z" fill="#FDBD39"/><path fill-rule="evenodd" clip-rule="evenodd" d="M43.587 40.409c-1.38 0-3.414-1.225-6.048-3.64-3.115-2.857-6.684-7.041-10.05-11.782-3.364-4.741-6.13-9.481-7.785-13.347-1.804-4.213-2.061-6.803-.765-7.7a1.756 1.756 0 0 1 1.019-.295c1.055 0 3.11.772 6.91 4.45l.083.08-.011.114c-.026.264-.05.53-.071.793l-.043.519-.372-.37C22.359 5.178 20.556 4.74 19.97 4.74a.69.69 0 0 0-.395.1c-.562.388-.598 2.29 1.15 6.374 1.627 3.797 4.352 8.465 7.673 13.145 3.322 4.68 6.836 8.803 9.896 11.609 3.3 3.026 4.787 3.352 5.273 3.352a.703.703 0 0 0 .406-.105c.593-.41.594-2.448-1.357-6.844l-.09-.201.197-.106c.196-.105.385-.21.563-.309l.235-.13.108.243c1.383 3.115 2.676 7.073.98 8.244-.285.198-.63.298-1.023.298Z" fill="#EE6723"/><path fill-rule="evenodd" clip-rule="evenodd" d="m37.18 34.796-.02.24c-.326 3.98-1.188 8.764-3.435 8.958a1.586 1.586 0 0 1-.139.006c-1.526 0-2.97-2.15-4.29-6.388-1.251-4.01-2.221-9.395-2.733-15.162-.511-5.766-.503-11.235.022-15.4.572-4.538 1.663-6.908 3.24-7.044.046-.004.095-.006.142-.006 1.108 0 2.776 1.232 4.484 6.972l-1.115.211c-.57-1.918-1.192-3.478-1.809-4.55-.57-.991-1.126-1.537-1.563-1.537-.014 0-.029 0-.043.002-.683.059-1.679 1.689-2.234 6.088-.516 4.09-.522 9.477-.018 15.169.505 5.692 1.46 10.996 2.688 14.935.55 1.764 1.152 3.217 1.744 4.204.545.91 1.072 1.41 1.485 1.41l.043-.001c.654-.057 1.886-1.753 2.405-7.72l1.147-.387Z" fill="#EE6723"/></svg>
